; generated by Slic3r Prusa Edition 1.42.0-beta2+linux64 on 2020-03-23 at 22:12:10

; 

; external perimeters extrusion width = 0.45mm
; perimeters extrusion width = 0.45mm
; infill extrusion width = 0.45mm
; solid infill extrusion width = 0.45mm
; top infill extrusion width = 0.45mm
; first layer extrusion width = 0.42mm

M201 X9000 Y9000 Z500 E10000 ; sets maximum accelerations, mm/sec^2
M203 X500 Y500 Z12 E120 ; sets maximum feedrates, mm/sec
M204 P2000 R1500 T2000 ; sets acceleration (P, T) and retract acceleration (R), mm/sec^2
M205 X10.00 Y10.00 Z0.20 E2.50 ; sets the jerk limits, mm/sec
M205 S0 T0 ; sets the minimum extruding and travel feed rate, mm/sec
M107
M115 U3.1.0 ; tell printer latest fw version
M83  ; extruder relative mode
M204 S2000 T1500 ; MK2 firmware only supports the old M204 format
M104 S190 ; set extruder temp
M140 S65 ; set bed temp
M190 S65 ; wait for bed temp
M109 S190 ; wait for extruder temp
G28 W ; home all without mesh bed level
G80 ; mesh bed leveling
G1 Y-3.0 F1000.0 ; go outside print area
G92 E0.0
G1 X60.0 E9.0  F1000.0 ; intro line
G1 X100.0 E12.5  F1000.0 ; intro line
G92 E0.0
M900 K30 ; Filament gcode
G21 ; set units to millimeters
G90 ; use absolute coordinates
M83 ; use relative distances for extrusion
;BEFORE_LAYER_CHANGE
G92 E0.0
;0.35


G1 Z0.350 F10800.000
;AFTER_LAYER_CHANGE
;0.35
G1 E-2.00000 F2400.00000
G1 X105.853 Y96.083 F10800.000
G1 E2.00000 F2400.00000
M204 S1000
G1 F900
G1 X106.285 Y95.699 E0.02816
G1 X106.805 Y95.442 E0.02834
G1 X107.376 Y95.331 E0.02834
G1 X127.504 Y95.328 E0.98195
G1 X128.310 Y95.484 E0.04008
G1 X129.003 Y95.932 E0.04026
G1 X129.478 Y96.602 E0.04008
G1 X129.670 Y97.401 E0.04008
G1 X129.672 Y137.511 E1.95677
G1 X129.618 Y137.984 E0.02322
G1 X129.463 Y138.430 E0.02305
G1 X129.142 Y138.923 E0.02869
G1 X128.703 Y139.309 E0.02851
G1 X128.177 Y139.564 E0.02851
G1 X127.599 Y139.670 E0.02869
G1 X107.478 Y139.672 E0.98159
G1 X107.013 Y139.617 E0.02287
G1 X106.570 Y139.463 E0.02287
G1 X106.069 Y139.135 E0.02922
G1 X105.679 Y138.685 E0.02904
G1 X105.425 Y138.143 E0.02922
G1 X105.328 Y137.551 E0.02922
G1 X105.328 Y97.489 E1.95446
G1 X105.382 Y97.016 E0.02322
G1 X105.537 Y96.570 E0.02305
G1 X105.821 Y96.133 E0.02541
G1 E-0.60000 F2400.00000
G1 F8640
G1 X106.285 Y95.699 E-0.16766
G1 X106.805 Y95.442 E-0.15329
G1 X107.376 Y95.331 E-0.15329
G1 X110.619 Y95.331 E-0.85577
G1 E-0.07000 F2400.00000
G1 X107.710 Y97.710 F10800.000
G1 E2.00000 F2400.00000
G1 F900
G1 X127.290 Y97.710 E0.95522
G1 X127.290 Y137.290 E1.93092
G1 X107.710 Y137.290 E0.95522
G1 X107.710 Y97.770 E1.92800
G1 X108.083 Y97.855 F10800.000
G1 X108.055 Y98.055
G1 F900
G1 X126.945 Y98.055 E0.92157
G1 X126.945 Y136.945 E1.89727
G1 X108.055 Y136.945 E0.92157
G1 X108.055 Y98.115 E1.89435
G1 X108.400 Y98.400 F10800.000
G1 F900
G1 X126.600 Y98.400 E0.88791
G1 X126.600 Y136.600 E1.86362
G1 X108.400 Y136.600 E0.88791
G1 X108.400 Y98.460 E1.86069
G1 E-0.60000 F2400.00000
G1 F8640
G1 X113.440 Y98.443 E-1.33000
G1 E-0.07000 F2400.00000
G1 X112.290 Y102.290 F10800.000
G1 E2.00000 F2400.00000
G1 F900
G1 X122.710 Y102.290 E0.50834
G1 X122.710 Y132.710 E1.48405
G1 X110.790 Y132.710 E0.58152
G1 X110.790 Y117.823 E0.72628
G1 X111.263 Y117.781 E0.02316
G1 X113.601 Y131.044 E0.65700
G1 X114.665 Y130.856 E0.05269
G1 X112.290 Y117.387 E0.66724
G1 X112.290 Y102.350 E0.73359
G1 X112.279 Y101.890 F10800.000
G1 X111.945 Y101.945
G1 F900
G1 X123.055 Y101.945 E0.54199
G1 X123.055 Y133.055 E1.51770
G1 X110.445 Y133.055 E0.61517
G1 X110.445 Y117.507 E0.75852
G1 X111.548 Y117.410 E0.05399
G1 X113.881 Y130.644 E0.65560
G1 X114.265 Y130.577 E0.01904
G1 X111.945 Y117.417 E0.65189
G1 X111.945 Y102.005 E0.75189
G1 X111.600 Y101.600 F10800.000
G1 F900
G1 X123.400 Y101.600 E0.57565
G1 X123.400 Y133.400 E1.55135
G1 X110.100 Y133.400 E0.64882
G1 X110.100 Y117.191 E0.79077
G1 X111.600 Y117.059 E0.07346
G1 X111.600 Y101.660 E0.75126
G1 E-0.60000 F2400.00000
G1 F8640
G1 X116.640 Y101.635 E-1.33000
G1 E-0.07000 F2400.00000
G1 X119.969 Y98.469 F10800.000
G1 E2.00000 F2400.00000
G1 F900
G1 X122.876 Y101.376 E0.20095
G1 X122.388 Y101.376 E0.02388
G1 X119.636 Y98.624 E0.19023
G1 X119.147 Y98.624 E0.02388
G1 X121.899 Y101.376 E0.19023
G1 X121.410 Y101.376 E0.02388
G1 X118.658 Y98.624 E0.19023
G1 X118.170 Y98.624 E0.02388
G1 X120.922 Y101.376 E0.19023
G1 X120.433 Y101.376 E0.02388
G1 X117.681 Y98.624 E0.19023
G1 X117.192 Y98.624 E0.02388
G1 X119.944 Y101.376 E0.19023
G1 X119.456 Y101.376 E0.02388
G1 X116.704 Y98.624 E0.19023
G1 X116.215 Y98.624 E0.02388
G1 X118.967 Y101.376 E0.19023
G1 X118.479 Y101.376 E0.02388
G1 X115.726 Y98.624 E0.19023
G1 X115.238 Y98.624 E0.02388
G1 X117.990 Y101.376 E0.19023
G1 X117.501 Y101.376 E0.02388
G1 X114.749 Y98.624 E0.19023
G1 X114.260 Y98.624 E0.02388
G1 X117.013 Y101.376 E0.19023
G1 X116.524 Y101.376 E0.02388
G1 X113.772 Y98.624 E0.19023
G1 X113.283 Y98.624 E0.02388
G1 X116.035 Y101.376 E0.19023
G1 X115.547 Y101.376 E0.02388
G1 X112.795 Y98.624 E0.19023
G1 X112.306 Y98.624 E0.02388
G1 X115.058 Y101.376 E0.19023
G1 X114.569 Y101.376 E0.02388
G1 X111.817 Y98.624 E0.19023
G1 X111.329 Y98.624 E0.02388
G1 X114.081 Y101.376 E0.19023
G1 X113.592 Y101.376 E0.02388
G1 X110.840 Y98.624 E0.19023
G1 X110.351 Y98.624 E0.02388
G1 X113.103 Y101.376 E0.19023
G1 X112.615 Y101.376 E0.02388
G1 X109.863 Y98.624 E0.19023
G1 X109.374 Y98.624 E0.02388
G1 X112.126 Y101.376 E0.19023
G1 X111.638 Y101.376 E0.02388
G1 X108.885 Y98.624 E0.19023
G1 X108.624 Y98.624 E0.01278
G1 X108.624 Y98.851 E0.01110
G1 X111.376 Y101.603 E0.19023
G1 X111.376 Y102.092 E0.02388
G1 X108.624 Y99.340 E0.19023
G1 X108.624 Y99.828 E0.02388
G1 X111.376 Y102.581 E0.19023
G1 X111.376 Y103.069 E0.02388
G1 X108.624 Y100.317 E0.19023
G1 X108.624 Y100.806 E0.02388
G1 X111.376 Y103.558 E0.19023
G1 X111.376 Y104.046 E0.02388
G1 X108.624 Y101.294 E0.19023
G1 X108.624 Y101.783 E0.02388
G1 X111.376 Y104.535 E0.19023
G1 X111.376 Y105.024 E0.02388
G1 X108.624 Y102.272 E0.19023
G1 X108.624 Y102.760 E0.02388
G1 X111.376 Y105.512 E0.19023
G1 X111.376 Y106.001 E0.02388
G1 X108.624 Y103.249 E0.19023
G1 X108.624 Y103.738 E0.02388
G1 X111.376 Y106.490 E0.19023
G1 X111.376 Y106.978 E0.02388
G1 X108.624 Y104.226 E0.19023
G1 X108.624 Y104.715 E0.02388
G1 X111.376 Y107.467 E0.19023
G1 X111.376 Y107.956 E0.02388
G1 X108.624 Y105.203 E0.19023
G1 X108.624 Y105.692 E0.02388
G1 X111.376 Y108.444 E0.19023
G1 X111.376 Y108.933 E0.02388
G1 X108.624 Y106.181 E0.19023
G1 X108.624 Y106.669 E0.02388
G1 X111.376 Y109.422 E0.19023
G1 X111.376 Y109.910 E0.02388
G1 X108.624 Y107.158 E0.19023
G1 X108.624 Y107.647 E0.02388
G1 X111.376 Y110.399 E0.19023
G1 X111.376 Y110.887 E0.02388
G1 X108.624 Y108.135 E0.19023
G1 X108.624 Y108.624 E0.02388
G1 X111.376 Y111.376 E0.19023
G1 X111.376 Y111.865 E0.02388
G1 X108.624 Y109.113 E0.19023
G1 X108.624 Y109.601 E0.02388
G1 X111.376 Y112.353 E0.19023
G1 X111.376 Y112.842 E0.02388
G1 X108.624 Y110.090 E0.19023
G1 X108.624 Y110.579 E0.02388
G1 X111.376 Y113.331 E0.19023
G1 X111.376 Y113.819 E0.02388
G1 X108.624 Y111.067 E0.19023
G1 X108.624 Y111.556 E0.02388
G1 X111.376 Y114.308 E0.19023
G1 X111.376 Y114.797 E0.02388
G1 X108.624 Y112.044 E0.19023
G1 X108.624 Y112.533 E0.02388
G1 X111.376 Y115.285 E0.19023
G1 X111.376 Y115.774 E0.02388
G1 X108.624 Y113.022 E0.19023
G1 X108.624 Y113.510 E0.02388
G1 X111.376 Y116.263 E0.19023
G1 X111.376 Y116.751 E0.02388
G1 X108.624 Y113.999 E0.19023
G1 X108.624 Y114.488 E0.02388
G1 X111.021 Y116.885 E0.16571
G1 X110.572 Y116.924 E0.02205
G1 X108.624 Y114.976 E0.13465
G1 X108.624 Y115.465 E0.02388
G1 X110.123 Y116.964 E0.10359
G1 X109.876 Y116.985 E0.01210
G1 X109.876 Y117.206 E0.01078
G1 X108.624 Y115.954 E0.08655
G1 X108.624 Y116.442 E0.02388
G1 X109.876 Y117.694 E0.08655
G1 X109.876 Y118.183 E0.02388
G1 X108.624 Y116.931 E0.08655
G1 X108.624 Y117.420 E0.02388
G1 X109.876 Y118.672 E0.08655
G1 X109.876 Y119.160 E0.02388
G1 X108.624 Y117.908 E0.08655
G1 X108.624 Y118.397 E0.02388
G1 X109.876 Y119.649 E0.08655
G1 X109.876 Y120.138 E0.02388
G1 X108.624 Y118.885 E0.08655
G1 X108.624 Y119.374 E0.02388
G1 X109.876 Y120.626 E0.08655
G1 X109.876 Y121.115 E0.02388
G1 X108.624 Y119.863 E0.08655
G1 X108.624 Y120.351 E0.02388
G1 X109.876 Y121.604 E0.08655
G1 X109.876 Y122.092 E0.02388
G1 X108.624 Y120.840 E0.08655
G1 X108.624 Y121.329 E0.02388
G1 X109.876 Y122.581 E0.08655
G1 X109.876 Y123.069 E0.02388
G1 X108.624 Y121.817 E0.08655
G1 X108.624 Y122.306 E0.02388
G1 X109.876 Y123.558 E0.08655
G1 X109.876 Y124.047 E0.02388
G1 X108.624 Y122.795 E0.08655
G1 X108.624 Y123.283 E0.02388
G1 X109.876 Y124.535 E0.08655
G1 X109.876 Y125.024 E0.02388
G1 X108.624 Y123.772 E0.08655
G1 X108.624 Y124.261 E0.02388
G1 X109.876 Y125.513 E0.08655
G1 X109.876 Y126.001 E0.02388
G1 X108.624 Y124.749 E0.08655
G1 X108.624 Y125.238 E0.02388
G1 X109.876 Y126.490 E0.08655
G1 X109.876 Y126.979 E0.02388
G1 X108.624 Y125.726 E0.08655
G1 X108.624 Y126.215 E0.02388
G1 X109.876 Y127.467 E0.08655
G1 X109.876 Y127.956 E0.02388
G1 X108.624 Y126.704 E0.08655
G1 X108.624 Y127.192 E0.02388
G1 X109.876 Y128.445 E0.08655
G1 X109.876 Y128.933 E0.02388
G1 X108.624 Y127.681 E0.08655
G1 X108.624 Y128.170 E0.02388
G1 X109.876 Y129.422 E0.08655
G1 X109.876 Y129.910 E0.02388
G1 X108.624 Y128.658 E0.08655
G1 X108.624 Y129.147 E0.02388
G1 X109.876 Y130.399 E0.08655
G1 X109.876 Y130.888 E0.02388
G1 X108.624 Y129.636 E0.08655
G1 X108.624 Y130.124 E0.02388
G1 X109.876 Y131.376 E0.08655
G1 X109.876 Y131.865 E0.02388
G1 X108.624 Y130.613 E0.08655
G1 X108.624 Y131.102 E0.02388
G1 X109.876 Y132.354 E0.08655
G1 X109.876 Y132.842 E0.02388
G1 X108.624 Y131.590 E0.08655
G1 X108.624 Y132.079 E0.02388
G1 X112.921 Y136.376 E0.29702
G1 X113.410 Y136.376 E0.02388
G1 X110.658 Y133.624 E0.19023
G1 X111.146 Y133.624 E0.02388
G1 X113.898 Y136.376 E0.19023
G1 X114.387 Y136.376 E0.02388
G1 X111.635 Y133.624 E0.19023
G1 X112.124 Y133.624 E0.02388
G1 X114.876 Y136.376 E0.19023
G1 X115.364 Y136.376 E0.02388
G1 X112.612 Y133.624 E0.19023
G1 X113.101 Y133.624 E0.02388
G1 X115.853 Y136.376 E0.19023
G1 X116.342 Y136.376 E0.02388
G1 X113.590 Y133.624 E0.19023
G1 X114.078 Y133.624 E0.02388
G1 X116.830 Y136.376 E0.19023
G1 X117.319 Y136.376 E0.02388
G1 X114.567 Y133.624 E0.19023
G1 X115.055 Y133.624 E0.02388
G1 X117.808 Y136.376 E0.19023
G1 X118.296 Y136.376 E0.02388
G1 X115.544 Y133.624 E0.19023
G1 X116.033 Y133.624 E0.02388
G1 X118.785 Y136.376 E0.19023
G1 X119.274 Y136.376 E0.02388
G1 X116.521 Y133.624 E0.19023
G1 X117.010 Y133.624 E0.02388
G1 X119.762 Y136.376 E0.19023
G1 X120.251 Y136.376 E0.02388
G1 X117.499 Y133.624 E0.19023
G1 X117.987 Y133.624 E0.02388
G1 X120.739 Y136.376 E0.19023
G1 X121.228 Y136.376 E0.02388
G1 X118.476 Y133.624 E0.19023
G1 X118.965 Y133.624 E0.02388
G1 X121.717 Y136.376 E0.19023
G1 X122.205 Y136.376 E0.02388
G1 X119.453 Y133.624 E0.19023
G1 X119.942 Y133.624 E0.02388
G1 X122.694 Y136.376 E0.19023
G1 X123.183 Y136.376 E0.02388
G1 X120.431 Y133.624 E0.19023
G1 X120.919 Y133.624 E0.02388
G1 X123.671 Y136.376 E0.19023
G1 X124.160 Y136.376 E0.02388
G1 X121.408 Y133.624 E0.19023
G1 X121.896 Y133.624 E0.02388
G1 X124.649 Y136.376 E0.19023
G1 X125.137 Y136.376 E0.02388
G1 X122.385 Y133.624 E0.19023
G1 X122.874 Y133.624 E0.02388
G1 X125.626 Y136.376 E0.19023
G1 X126.115 Y136.376 E0.02388
G1 X123.362 Y133.624 E0.19023
G1 X123.624 Y133.624 E0.01278
G1 X123.624 Y133.397 E0.01110
G1 X126.376 Y136.149 E0.19023
G1 X126.376 Y135.660 E0.02388
G1 X123.624 Y132.908 E0.19023
G1 X123.624 Y132.420 E0.02388
G1 X126.376 Y135.172 E0.19023
G1 X126.376 Y134.683 E0.02388
G1 X123.624 Y131.931 E0.19023
G1 X123.624 Y131.442 E0.02388
G1 X126.376 Y134.194 E0.19023
G1 X126.376 Y133.706 E0.02388
G1 X123.624 Y130.954 E0.19023
G1 X123.624 Y130.465 E0.02388
G1 X126.376 Y133.217 E0.19023
G1 X126.376 Y132.728 E0.02388
G1 X123.624 Y129.976 E0.19023
G1 X123.624 Y129.488 E0.02388
G1 X126.376 Y132.240 E0.19023
G1 X126.376 Y131.751 E0.02388
G1 X123.624 Y128.999 E0.19023
G1 X123.624 Y128.510 E0.02388
G1 X126.376 Y131.263 E0.19023
G1 X126.376 Y130.774 E0.02388
G1 X123.624 Y128.022 E0.19023
G1 X123.624 Y127.533 E0.02388
G1 X126.376 Y130.285 E0.19023
G1 X126.376 Y129.797 E0.02388
G1 X123.624 Y127.044 E0.19023
G1 X123.624 Y126.556 E0.02388
G1 X126.376 Y129.308 E0.19023
G1 X126.376 Y128.819 E0.02388
G1 X123.624 Y126.067 E0.19023
G1 X123.624 Y125.579 E0.02388
G1 X126.376 Y128.331 E0.19023
G1 X126.376 Y127.842 E0.02388
G1 X123.624 Y125.090 E0.19023
G1 X123.624 Y124.601 E0.02388
G1 X126.376 Y127.353 E0.19023
G1 X126.376 Y126.865 E0.02388
G1 X123.624 Y124.113 E0.19023
G1 X123.624 Y123.624 E0.02388
G1 X126.376 Y126.376 E0.19023
G1 X126.376 Y125.887 E0.02388
G1 X123.624 Y123.135 E0.19023
G1 X123.624 Y122.647 E0.02388
G1 X126.376 Y125.399 E0.19023
G1 X126.376 Y124.910 E0.02388
G1 X123.624 Y122.158 E0.19023
G1 X123.624 Y121.669 E0.02388
G1 X126.376 Y124.422 E0.19023
G1 X126.376 Y123.933 E0.02388
G1 X123.624 Y121.181 E0.19023
G1 X123.624 Y120.692 E0.02388
G1 X126.376 Y123.444 E0.19023
G1 X126.376 Y122.956 E0.02388
G1 X123.624 Y120.203 E0.19023
G1 X123.624 Y119.715 E0.02388
G1 X126.376 Y122.467 E0.19023
G1 X126.376 Y121.978 E0.02388
G1 X123.624 Y119.226 E0.19023
G1 X123.624 Y118.738 E0.02388
G1 X126.376 Y121.490 E0.19023
G1 X126.376 Y121.001 E0.02388
G1 X123.624 Y118.249 E0.19023
G1 X123.624 Y117.760 E0.02388
G1 X126.376 Y120.512 E0.19023
G1 X126.376 Y120.024 E0.02388
G1 X123.624 Y117.272 E0.19023
G1 X123.624 Y116.783 E0.02388
G1 X126.376 Y119.535 E0.19023
G1 X126.376 Y119.046 E0.02388
G1 X123.624 Y116.294 E0.19023
G1 X123.624 Y115.806 E0.02388
G1 X126.376 Y118.558 E0.19023
G1 X126.376 Y118.069 E0.02388
G1 X123.624 Y115.317 E0.19023
G1 X123.624 Y114.828 E0.02388
G1 X126.376 Y117.581 E0.19023
G1 X126.376 Y117.092 E0.02388
G1 X123.624 Y114.340 E0.19023
G1 X123.624 Y113.851 E0.02388
G1 X126.376 Y116.603 E0.19023
G1 X126.376 Y116.115 E0.02388
G1 X123.624 Y113.362 E0.19023
G1 X123.624 Y112.874 E0.02388
G1 X126.376 Y115.626 E0.19023
G1 X126.376 Y115.137 E0.02388
G1 X123.624 Y112.385 E0.19023
G1 X123.624 Y111.897 E0.02388
G1 X126.376 Y114.649 E0.19023
G1 X126.376 Y114.160 E0.02388
G1 X123.624 Y111.408 E0.19023
G1 X123.624 Y110.919 E0.02388
G1 X126.376 Y113.671 E0.19023
G1 X126.376 Y113.183 E0.02388
G1 X123.624 Y110.431 E0.19023
G1 X123.624 Y109.942 E0.02388
G1 X126.376 Y112.694 E0.19023
G1 X126.376 Y112.205 E0.02388
G1 X123.624 Y109.453 E0.19023
G1 X123.624 Y108.965 E0.02388
G1 X126.376 Y111.717 E0.19023
G1 X126.376 Y111.228 E0.02388
G1 X123.624 Y108.476 E0.19023
G1 X123.624 Y107.987 E0.02388
G1 X126.376 Y110.740 E0.19023
G1 X126.376 Y110.251 E0.02388
G1 X123.624 Y107.499 E0.19023
G1 X123.624 Y107.010 E0.02388
G1 X126.376 Y109.762 E0.19023
G1 X126.376 Y109.274 E0.02388
G1 X123.624 Y106.521 E0.19023
G1 X123.624 Y106.033 E0.02388
G1 X126.376 Y108.785 E0.19023
G1 X126.376 Y108.296 E0.02388
G1 X123.624 Y105.544 E0.19023
G1 X123.624 Y105.056 E0.02388
G1 X126.376 Y107.808 E0.19023
G1 X126.376 Y107.319 E0.02388
G1 X123.624 Y104.567 E0.19023
G1 X123.624 Y104.078 E0.02388
G1 X126.376 Y106.830 E0.19023
G1 X126.376 Y106.342 E0.02388
G1 X123.624 Y103.590 E0.19023
G1 X123.624 Y103.101 E0.02388
G1 X126.376 Y105.853 E0.19023
G1 X126.376 Y105.364 E0.02388
G1 X123.624 Y102.612 E0.19023
G1 X123.624 Y102.124 E0.02388
G1 X126.376 Y104.876 E0.19023
G1 X126.376 Y104.387 E0.02388
G1 X120.613 Y98.624 E0.39835
G1 X121.101 Y98.624 E0.02388
G1 X126.376 Y103.899 E0.36458
G1 X126.376 Y103.410 E0.02388
G1 X121.590 Y98.624 E0.33080
G1 X122.079 Y98.624 E0.02388
G1 X126.376 Y102.921 E0.29703
G1 X126.376 Y102.433 E0.02388
G1 X122.567 Y98.624 E0.26325
G1 X123.056 Y98.624 E0.02388
G1 X126.376 Y101.944 E0.22948
G1 X126.376 Y101.455 E0.02388
G1 X123.545 Y98.624 E0.19570
G1 X124.033 Y98.624 E0.02388
G1 X126.376 Y100.967 E0.16193
G1 X126.376 Y100.478 E0.02388
G1 X124.522 Y98.624 E0.12815
G1 X125.011 Y98.624 E0.02388
G1 X126.376 Y99.989 E0.09438
G1 X126.376 Y99.501 E0.02388
G1 X125.499 Y98.624 E0.06060
G1 X125.988 Y98.624 E0.02388
G1 X126.531 Y99.167 E0.03756
G1 E-0.60000 F2400.00000
G1 F8640
G1 X125.988 Y98.624 E-0.20277
G1 X125.499 Y98.624 E-0.12895
G1 X126.376 Y99.501 E-0.32721
