; generated by Slic3r Prusa Edition 1.42.0-beta2+linux64 on 2020-03-24 at 12:43:31

; 

; external perimeters extrusion width = 0.45mm
; perimeters extrusion width = 0.45mm
; infill extrusion width = 0.45mm
; solid infill extrusion width = 0.45mm
; top infill extrusion width = 0.45mm
; first layer extrusion width = 0.42mm

M201 X9000 Y9000 Z500 E10000 ; sets maximum accelerations, mm/sec^2
M203 X500 Y500 Z12 E120 ; sets maximum feedrates, mm/sec
M204 P2000 R1500 T2000 ; sets acceleration (P, T) and retract acceleration (R), mm/sec^2
M205 X10.00 Y10.00 Z0.20 E2.50 ; sets the jerk limits, mm/sec
M205 S0 T0 ; sets the minimum extruding and travel feed rate, mm/sec
M107
M115 U3.1.0 ; tell printer latest fw version
M83  ; extruder relative mode
M204 S2000 T1500 ; MK2 firmware only supports the old M204 format
M104 S200 ; set extruder temp
M140 S65 ; set bed temp
M190 S65 ; wait for bed temp
M109 S200 ; wait for extruder temp
G28 W ; home all without mesh bed level
G80 ; mesh bed leveling
G1 Y-3.0 F1000.0 ; go outside print area
G92 E0.0
G1 X60.0 E9.0  F1000.0 ; intro line
G1 X100.0 E12.5  F1000.0 ; intro line
G92 E0.0
M900 K30 ; Filament gcode
G21 ; set units to millimeters
G90 ; use absolute coordinates
M83 ; use relative distances for extrusion
;BEFORE_LAYER_CHANGE
G92 E0.0
;0.2


G1 Z0.200 F10800.000
;AFTER_LAYER_CHANGE
;0.2
G1 E-7.50000 F3900.00000
G1 X93.054 Y86.057 F10800.000
G1 E7.50000 F3900.00000
M204 S1000
G1 F900
G1 X93.500 Y85.670 E0.01704
G1 X94.032 Y85.416 E0.01704
G1 X94.614 Y85.313 E0.01704
G1 X124.704 Y85.311 E0.86885
G1 X125.338 Y85.406 E0.01851
G1 X125.917 Y85.681 E0.01851
G1 X141.553 Y96.564 E0.55010
G1 X142.050 Y97.044 E0.01997
G1 X142.374 Y97.659 E0.02007
G1 X142.489 Y98.352 E0.02028
G1 X142.489 Y136.649 E1.10583
G1 X142.432 Y137.135 E0.01411
G1 X142.271 Y137.593 E0.01401
G1 X141.970 Y138.057 E0.01600
G1 X141.561 Y138.431 E0.01600
G1 X125.938 Y149.305 E0.54961
G1 X125.222 Y149.625 E0.02267
G1 X124.704 Y149.689 E0.01506
G1 X94.689 Y149.689 E0.86669
G1 X94.207 Y149.632 E0.01401
G1 X93.750 Y149.471 E0.01401
G1 X93.246 Y149.136 E0.01746
G1 X92.856 Y148.679 E0.01736
G1 X92.605 Y148.133 E0.01736
G1 X92.512 Y147.535 E0.01746
G1 X92.511 Y87.493 E1.73373
G1 X92.568 Y87.007 E0.01411
G1 X92.729 Y86.550 E0.01401
G1 X93.021 Y86.107 E0.01531
G1 E-2.25000 F3900.00000
G1 F8640
G1 X93.500 Y85.670 E-0.27800
G1 X94.032 Y85.416 E-0.25312
G1 X94.614 Y85.313 E-0.25312
G1 X104.416 Y85.313 E-4.20325
G1 E-0.26250 F3900.00000
G1 X94.910 Y87.710 F10800.000
G1 E7.50000 F3900.00000
G1 F900
G1 X124.490 Y87.710 E0.85413
G1 X124.490 Y147.290 E1.72038
G1 X94.910 Y147.290 E0.85413
G1 X94.910 Y87.770 E1.71865
G1 X95.283 Y87.855 F10800.000
G1 X95.287 Y88.087
G1 F900
G1 X124.113 Y88.087 E0.83235
G1 X124.113 Y146.913 E1.69860
G1 X95.287 Y146.913 E0.83235
G1 X95.287 Y88.147 E1.69687
G1 X95.664 Y88.464 F10800.000
G1 F900
G1 X123.736 Y88.464 E0.81057
G1 X123.736 Y146.536 E1.67683
G1 X95.664 Y146.536 E0.81057
G1 X95.664 Y88.524 E1.67509
G1 E-2.25000 F3900.00000
G1 F8640
G1 X107.295 Y88.499 E-4.98750
G1 E-0.26250 F3900.00000
G1 X104.490 Y97.290 F10800.000
G1 E7.50000 F3900.00000
G1 F900
G1 X116.410 Y97.290 E0.34419
G1 X116.410 Y112.041 E0.42593
G1 X115.928 Y112.074 E0.01395
G1 X114.073 Y98.873 E0.38493
G1 X113.003 Y99.024 E0.03119
G1 X114.910 Y112.590 E0.39558
G1 X114.910 Y137.710 E0.72534
G1 X102.990 Y137.710 E0.34419
G1 X102.990 Y122.959 E0.42593
G1 X103.472 Y122.926 E0.01395
G1 X105.327 Y136.127 E0.38493
G1 X106.397 Y135.976 E0.03119
G1 X104.490 Y122.410 E0.39558
G1 X104.490 Y97.350 E0.72360
G1 X104.483 Y96.890 F10800.000
G1 X104.113 Y96.913
G1 F900
G1 X116.787 Y96.913 E0.36597
G1 X116.787 Y112.392 E0.44697
G1 X115.604 Y112.475 E0.03425
G1 X113.752 Y99.299 E0.38419
G1 X113.429 Y99.345 E0.00941
G1 X115.287 Y112.564 E0.38546
G1 X115.287 Y138.087 E0.73699
G1 X102.613 Y138.087 E0.36597
G1 X102.613 Y122.608 E0.44697
G1 X103.796 Y122.525 E0.03425
G1 X105.648 Y135.701 E0.38419
G1 X105.971 Y135.655 E0.00941
G1 X104.113 Y122.436 E0.38546
G1 X104.113 Y96.973 E0.73525
G1 X103.736 Y96.536 F10800.000
G1 F900
G1 X117.164 Y96.536 E0.38774
G1 X117.164 Y112.744 E0.46801
G1 X115.664 Y112.849 E0.04342
G1 X115.664 Y138.464 E0.73964
G1 X102.236 Y138.464 E0.38774
G1 X102.236 Y122.256 E0.46801
G1 X103.736 Y122.151 E0.04342
G1 X103.736 Y96.596 E0.73791
G1 E-2.25000 F3900.00000
G1 F8640
G1 X115.366 Y96.544 E-4.98750
G1 E-0.26250 F3900.00000
G1 X116.944 Y96.460 F10800.000
G1 E7.50000 F3900.00000
G1 F900
G1 X109.192 Y88.709 E0.31675
G1 X108.659 Y88.709 E0.01542
G1 X116.240 Y96.291 E0.30981
G1 X115.707 Y96.291 E0.01542
G1 X108.125 Y88.709 E0.30981
G1 X107.592 Y88.709 E0.01542
G1 X115.173 Y96.291 E0.30981
G1 X114.639 Y96.291 E0.01542
G1 X107.058 Y88.709 E0.30981
G1 X106.524 Y88.709 E0.01542
G1 X114.106 Y96.291 E0.30981
G1 X113.572 Y96.291 E0.01542
G1 X105.991 Y88.709 E0.30981
G1 X105.457 Y88.709 E0.01542
G1 X113.038 Y96.291 E0.30981
G1 X112.505 Y96.291 E0.01542
G1 X104.923 Y88.709 E0.30981
G1 X104.390 Y88.709 E0.01542
G1 X111.971 Y96.291 E0.30981
G1 X111.438 Y96.291 E0.01542
G1 X103.856 Y88.709 E0.30981
G1 X103.322 Y88.709 E0.01542
G1 X110.904 Y96.291 E0.30981
G1 X110.370 Y96.291 E0.01542
G1 X102.789 Y88.709 E0.30981
G1 X102.255 Y88.709 E0.01542
G1 X109.837 Y96.291 E0.30981
G1 X109.303 Y96.291 E0.01542
G1 X101.721 Y88.709 E0.30981
G1 X101.188 Y88.709 E0.01542
G1 X108.769 Y96.291 E0.30981
G1 X108.236 Y96.291 E0.01542
G1 X100.654 Y88.709 E0.30981
G1 X100.121 Y88.709 E0.01542
G1 X107.702 Y96.291 E0.30981
G1 X107.168 Y96.291 E0.01542
G1 X99.587 Y88.709 E0.30981
G1 X99.053 Y88.709 E0.01542
G1 X106.635 Y96.291 E0.30981
G1 X106.101 Y96.291 E0.01542
G1 X98.520 Y88.709 E0.30981
G1 X97.986 Y88.709 E0.01542
G1 X105.567 Y96.291 E0.30981
G1 X105.034 Y96.291 E0.01542
G1 X97.452 Y88.709 E0.30981
G1 X96.919 Y88.709 E0.01542
G1 X104.500 Y96.291 E0.30981
G1 X103.967 Y96.291 E0.01542
G1 X96.385 Y88.709 E0.30981
G1 X95.909 Y88.709 E0.01375
G1 X95.909 Y88.767 E0.00167
G1 X103.491 Y96.349 E0.30981
G1 X103.491 Y96.882 E0.01542
G1 X95.909 Y89.301 E0.30981
G1 X95.909 Y89.834 E0.01542
G1 X103.491 Y97.416 E0.30981
G1 X103.491 Y97.950 E0.01542
G1 X95.909 Y90.368 E0.30981
G1 X95.909 Y90.902 E0.01542
G1 X103.491 Y98.483 E0.30981
G1 X103.491 Y99.017 E0.01542
G1 X95.909 Y91.435 E0.30981
G1 X95.909 Y91.969 E0.01542
G1 X103.491 Y99.551 E0.30981
G1 X103.491 Y100.084 E0.01542
G1 X95.909 Y92.503 E0.30981
G1 X95.909 Y93.036 E0.01542
G1 X103.491 Y100.618 E0.30981
G1 X103.491 Y101.151 E0.01542
G1 X95.909 Y93.570 E0.30981
G1 X95.909 Y94.104 E0.01542
G1 X103.491 Y101.685 E0.30981
G1 X103.491 Y102.219 E0.01542
G1 X95.909 Y94.637 E0.30981
G1 X95.909 Y95.171 E0.01542
G1 X103.491 Y102.752 E0.30981
G1 X103.491 Y103.286 E0.01542
G1 X95.909 Y95.705 E0.30981
G1 X95.909 Y96.238 E0.01542
G1 X103.491 Y103.820 E0.30981
G1 X103.491 Y104.353 E0.01542
G1 X95.909 Y96.772 E0.30981
G1 X95.909 Y97.305 E0.01542
G1 X103.491 Y104.887 E0.30981
G1 X103.491 Y105.421 E0.01542
G1 X95.909 Y97.839 E0.30981
G1 X95.909 Y98.373 E0.01542
G1 X103.491 Y105.954 E0.30981
G1 X103.491 Y106.488 E0.01542
G1 X95.909 Y98.906 E0.30981
G1 X95.909 Y99.440 E0.01542
G1 X103.491 Y107.022 E0.30981
G1 X103.491 Y107.555 E0.01542
G1 X95.909 Y99.974 E0.30981
G1 X95.909 Y100.507 E0.01542
G1 X103.491 Y108.089 E0.30981
G1 X103.491 Y108.623 E0.01542
G1 X95.909 Y101.041 E0.30981
G1 X95.909 Y101.575 E0.01542
G1 X103.491 Y109.156 E0.30981
G1 X103.491 Y109.690 E0.01542
G1 X95.909 Y102.108 E0.30981
G1 X95.909 Y102.642 E0.01542
G1 X103.491 Y110.223 E0.30981
G1 X103.491 Y110.757 E0.01542
G1 X95.909 Y103.176 E0.30981
G1 X95.909 Y103.709 E0.01542
G1 X103.491 Y111.291 E0.30981
G1 X103.491 Y111.824 E0.01542
G1 X95.909 Y104.243 E0.30981
G1 X95.909 Y104.777 E0.01542
G1 X103.491 Y112.358 E0.30981
G1 X103.491 Y112.892 E0.01542
G1 X95.909 Y105.310 E0.30981
G1 X95.909 Y105.844 E0.01542
G1 X103.491 Y113.425 E0.30981
G1 X103.491 Y113.959 E0.01542
G1 X95.909 Y106.377 E0.30981
G1 X95.909 Y106.911 E0.01542
G1 X103.491 Y114.493 E0.30981
G1 X103.491 Y115.026 E0.01542
G1 X95.909 Y107.445 E0.30981
G1 X95.909 Y107.978 E0.01542
G1 X103.491 Y115.560 E0.30981
G1 X103.491 Y116.094 E0.01542
G1 X95.909 Y108.512 E0.30981
G1 X95.909 Y109.046 E0.01542
G1 X103.491 Y116.627 E0.30981
G1 X103.491 Y117.161 E0.01542
G1 X95.909 Y109.579 E0.30981
G1 X95.909 Y110.113 E0.01542
G1 X103.491 Y117.695 E0.30981
G1 X103.491 Y118.228 E0.01542
G1 X95.909 Y110.647 E0.30981
G1 X95.909 Y111.180 E0.01542
G1 X103.491 Y118.762 E0.30981
G1 X103.491 Y119.295 E0.01542
G1 X95.909 Y111.714 E0.30981
G1 X95.909 Y112.248 E0.01542
G1 X103.491 Y119.829 E0.30981
G1 X103.491 Y120.363 E0.01542
G1 X95.909 Y112.781 E0.30981
G1 X95.909 Y113.315 E0.01542
G1 X103.491 Y120.896 E0.30981
G1 X103.491 Y121.430 E0.01542
G1 X95.909 Y113.849 E0.30981
G1 X95.909 Y114.382 E0.01542
G1 X103.452 Y121.925 E0.30824
G1 X102.954 Y121.960 E0.01445
G1 X95.909 Y114.916 E0.28786
G1 X95.909 Y115.449 E0.01542
G1 X102.455 Y121.995 E0.26748
G1 X101.991 Y122.027 E0.01344
G1 X101.991 Y122.065 E0.00108
G1 X95.909 Y115.983 E0.24852
G1 X95.909 Y116.517 E0.01542
G1 X101.991 Y122.598 E0.24852
G1 X101.991 Y123.132 E0.01542
G1 X95.909 Y117.050 E0.24852
G1 X95.909 Y117.584 E0.01542
G1 X101.991 Y123.666 E0.24852
G1 X101.991 Y124.199 E0.01542
G1 X95.909 Y118.118 E0.24852
G1 X95.909 Y118.651 E0.01542
G1 X101.991 Y124.733 E0.24852
G1 X101.991 Y125.267 E0.01542
G1 X95.909 Y119.185 E0.24852
G1 X95.909 Y119.719 E0.01542
G1 X101.991 Y125.800 E0.24852
G1 X101.991 Y126.334 E0.01542
G1 X95.909 Y120.252 E0.24852
G1 X95.909 Y120.786 E0.01542
G1 X101.991 Y126.867 E0.24852
G1 X101.991 Y127.401 E0.01542
G1 X95.909 Y121.320 E0.24852
G1 X95.909 Y121.853 E0.01542
G1 X101.991 Y127.935 E0.24852
G1 X101.991 Y128.468 E0.01542
G1 X95.909 Y122.387 E0.24852
G1 X95.909 Y122.921 E0.01542
G1 X101.991 Y129.002 E0.24852
G1 X101.991 Y129.536 E0.01542
G1 X95.909 Y123.454 E0.24852
G1 X95.909 Y123.988 E0.01542
G1 X101.991 Y130.069 E0.24852
G1 X101.991 Y130.603 E0.01542
G1 X95.909 Y124.521 E0.24852
G1 X95.909 Y125.055 E0.01542
G1 X101.991 Y131.137 E0.24852
G1 X101.991 Y131.670 E0.01542
G1 X95.909 Y125.589 E0.24852
G1 X95.909 Y126.122 E0.01542
G1 X101.991 Y132.204 E0.24852
G1 X101.991 Y132.738 E0.01542
G1 X95.909 Y126.656 E0.24852
G1 X95.909 Y127.190 E0.01542
G1 X101.991 Y133.271 E0.24852
G1 X101.991 Y133.805 E0.01542
G1 X95.909 Y127.723 E0.24852
G1 X95.909 Y128.257 E0.01542
G1 X101.991 Y134.339 E0.24852
G1 X101.991 Y134.872 E0.01542
G1 X95.909 Y128.791 E0.24852
G1 X95.909 Y129.324 E0.01542
G1 X101.991 Y135.406 E0.24852
G1 X101.991 Y135.939 E0.01542
G1 X95.909 Y129.858 E0.24852
G1 X95.909 Y130.392 E0.01542
G1 X101.991 Y136.473 E0.24852
G1 X101.991 Y137.007 E0.01542
G1 X95.909 Y130.925 E0.24852
G1 X95.909 Y131.459 E0.01542
G1 X101.991 Y137.540 E0.24852
G1 X101.991 Y138.074 E0.01542
G1 X95.909 Y131.993 E0.24852
G1 X95.909 Y132.526 E0.01542
G1 X109.674 Y146.291 E0.56248
G1 X109.140 Y146.291 E0.01542
G1 X95.909 Y133.060 E0.54067
G1 X95.909 Y133.593 E0.01542
G1 X108.607 Y146.291 E0.51887
G1 X108.073 Y146.291 E0.01542
G1 X95.909 Y134.127 E0.49706
G1 X95.909 Y134.661 E0.01542
G1 X107.539 Y146.291 E0.47525
G1 X107.006 Y146.291 E0.01542
G1 X95.909 Y135.194 E0.45345
G1 X95.909 Y135.728 E0.01542
G1 X106.472 Y146.291 E0.43164
G1 X105.938 Y146.291 E0.01542
G1 X95.909 Y136.262 E0.40983
G1 X95.909 Y136.795 E0.01542
G1 X105.405 Y146.291 E0.38802
G1 X104.871 Y146.291 E0.01542
G1 X95.909 Y137.329 E0.36622
G1 X95.909 Y137.863 E0.01542
G1 X104.337 Y146.291 E0.34441
G1 X103.804 Y146.291 E0.01542
G1 X95.909 Y138.396 E0.32260
G1 X95.909 Y138.930 E0.01542
G1 X103.270 Y146.291 E0.30080
G1 X102.736 Y146.291 E0.01542
G1 X95.909 Y139.464 E0.27899
G1 X95.909 Y139.997 E0.01542
G1 X102.203 Y146.291 E0.25718
G1 X101.669 Y146.291 E0.01542
G1 X95.909 Y140.531 E0.23538
G1 X95.909 Y141.064 E0.01542
G1 X101.136 Y146.291 E0.21357
G1 X100.602 Y146.291 E0.01542
G1 X95.909 Y141.598 E0.19176
G1 X95.909 Y142.132 E0.01542
G1 X100.068 Y146.291 E0.16995
G1 X99.535 Y146.291 E0.01542
G1 X95.909 Y142.665 E0.14815
G1 X95.909 Y143.199 E0.01542
G1 X99.001 Y146.291 E0.12634
G1 X98.467 Y146.291 E0.01542
G1 X95.909 Y143.733 E0.10453
G1 X95.909 Y144.266 E0.01542
G1 X97.934 Y146.291 E0.08273
G1 X97.400 Y146.291 E0.01542
G1 X95.909 Y144.800 E0.06092
G1 X95.909 Y145.334 E0.01542
G1 X96.866 Y146.291 E0.03911
G1 X96.333 Y146.291 E0.01542
G1 X95.740 Y145.698 E0.02424
G1 E-2.25000 F3900.00000
G1 F8640
G1 X96.333 Y146.291 E-0.35971
G1 X96.866 Y146.291 E-0.22884
G1 X95.909 Y145.334 E-0.58043
G1 X95.909 Y144.800 E-0.22884
G1 X97.400 Y146.291 E-0.90405
G1 X97.934 Y146.291 E-0.22884
G1 X95.909 Y144.266 E-1.22768
G1 X95.909 Y143.733 E-0.22884
G1 X97.559 Y145.382 E-1.00028
G1 E-0.26250 F3900.00000
G1 X102.456 Y138.540 F10800.000
G1 E7.50000 F3900.00000
G1 F900
G1 X110.207 Y146.291 E0.31675
G1 X110.741 Y146.291 E0.01542
G1 X103.160 Y138.709 E0.30981
G1 X103.693 Y138.709 E0.01542
G1 X111.275 Y146.291 E0.30981
G1 X111.808 Y146.291 E0.01542
G1 X104.227 Y138.709 E0.30981
G1 X104.761 Y138.709 E0.01542
G1 X112.342 Y146.291 E0.30981
G1 X112.876 Y146.291 E0.01542
G1 X105.294 Y138.709 E0.30981
G1 X105.828 Y138.709 E0.01542
G1 X113.409 Y146.291 E0.30981
G1 X113.943 Y146.291 E0.01542
G1 X106.361 Y138.709 E0.30981
G1 X106.895 Y138.709 E0.01542
G1 X114.477 Y146.291 E0.30981
G1 X115.010 Y146.291 E0.01542
G1 X107.429 Y138.709 E0.30981
G1 X107.962 Y138.709 E0.01542
G1 X115.544 Y146.291 E0.30981
G1 X116.078 Y146.291 E0.01542
G1 X108.496 Y138.709 E0.30981
G1 X109.030 Y138.709 E0.01542
G1 X116.611 Y146.291 E0.30981
G1 X117.145 Y146.291 E0.01542
G1 X109.563 Y138.709 E0.30981
G1 X110.097 Y138.709 E0.01542
G1 X117.679 Y146.291 E0.30981
G1 X118.212 Y146.291 E0.01542
G1 X110.631 Y138.709 E0.30981
G1 X111.164 Y138.709 E0.01542
G1 X118.746 Y146.291 E0.30981
G1 X119.279 Y146.291 E0.01542
G1 X111.698 Y138.709 E0.30981
G1 X112.232 Y138.709 E0.01542
G1 X119.813 Y146.291 E0.30981
G1 X120.347 Y146.291 E0.01542
G1 X112.765 Y138.709 E0.30981
G1 X113.299 Y138.709 E0.01542
G1 X120.880 Y146.291 E0.30981
G1 X121.414 Y146.291 E0.01542
G1 X113.833 Y138.709 E0.30981
G1 X114.366 Y138.709 E0.01542
G1 X121.948 Y146.291 E0.30981
G1 X122.481 Y146.291 E0.01542
G1 X114.900 Y138.709 E0.30981
G1 X115.433 Y138.709 E0.01542
G1 X123.015 Y146.291 E0.30981
G1 X123.491 Y146.291 E0.01375
G1 X123.491 Y146.233 E0.00167
G1 X115.909 Y138.651 E0.30981
G1 X115.909 Y138.118 E0.01542
G1 X123.491 Y145.699 E0.30981
G1 X123.491 Y145.166 E0.01542
G1 X115.909 Y137.584 E0.30981
G1 X115.909 Y137.050 E0.01542
G1 X123.491 Y144.632 E0.30981
G1 X123.491 Y144.098 E0.01542
G1 X115.909 Y136.517 E0.30981
G1 X115.909 Y135.983 E0.01542
G1 X123.491 Y143.565 E0.30981
G1 X123.491 Y143.031 E0.01542
G1 X115.909 Y135.449 E0.30981
G1 X115.909 Y134.916 E0.01542
G1 X123.491 Y142.497 E0.30981
G1 X123.491 Y141.964 E0.01542
G1 X115.909 Y134.382 E0.30981
G1 X115.909 Y133.849 E0.01542
G1 X123.491 Y141.430 E0.30981
G1 X123.491 Y140.896 E0.01542
G1 X115.909 Y133.315 E0.30981
G1 X115.909 Y132.781 E0.01542
G1 X123.491 Y140.363 E0.30981
G1 X123.491 Y139.829 E0.01542
G1 X115.909 Y132.248 E0.30981
G1 X115.909 Y131.714 E0.01542
G1 X123.491 Y139.295 E0.30981
G1 X123.491 Y138.762 E0.01542
G1 X115.909 Y131.180 E0.30981
G1 X115.909 Y130.647 E0.01542
G1 X123.491 Y138.228 E0.30981
G1 X123.491 Y137.695 E0.01542
G1 X115.909 Y130.113 E0.30981
G1 X115.909 Y129.579 E0.01542
G1 X123.491 Y137.161 E0.30981
G1 X123.491 Y136.627 E0.01542
G1 X115.909 Y129.046 E0.30981
G1 X115.909 Y128.512 E0.01542
G1 X123.491 Y136.094 E0.30981
G1 X123.491 Y135.560 E0.01542
G1 X115.909 Y127.978 E0.30981
G1 X115.909 Y127.445 E0.01542
G1 X123.491 Y135.026 E0.30981
G1 X123.491 Y134.493 E0.01542
G1 X115.909 Y126.911 E0.30981
G1 X115.909 Y126.377 E0.01542
G1 X123.491 Y133.959 E0.30981
G1 X123.491 Y133.425 E0.01542
G1 X115.909 Y125.844 E0.30981
G1 X115.909 Y125.310 E0.01542
G1 X123.491 Y132.892 E0.30981
G1 X123.491 Y132.358 E0.01542
G1 X115.909 Y124.777 E0.30981
G1 X115.909 Y124.243 E0.01542
G1 X123.491 Y131.824 E0.30981
G1 X123.491 Y131.291 E0.01542
G1 X115.909 Y123.709 E0.30981
G1 X115.909 Y123.176 E0.01542
G1 X123.491 Y130.757 E0.30981
G1 X123.491 Y130.223 E0.01542
G1 X115.909 Y122.642 E0.30981
